modules/map-icons/icons/car-wash.svg

<svg version="1.2" baseProfile="tiny" xmlns="http://www.w3.org/2000/svg" width="50" height="50" viewBox="0 0 50 50" overflow="inherit"><path d="M43 6v-4h-36v4h-7v43h4v-39h3v4h36v-4h3v39h4v-43zm-.948 23l-6.525-11.125c-.259-.481-.91-.875-1.446-.875h-18.163c-.536 0-1.187.394-1.445.875l-6.524 11.125c-1.072 0-1.949.9-1.949 2v10c0 1.1.877 2 1.949 2h2.051v3c0 1.65 1.213 3 2.82 3h.975c1.607 0 3.205-1.35 3.205-3v-3h16v3c0 1.65 1.597 3 3.205 3h.975c1.607 0 2.82-1.35 2.82-3v-3h2.052c1.071 0 1.948-.9 1.948-2v-10c0-1.1-.877-2-1.948-2zm-30.693 8c-1.345 0-2.436-1.119-2.436-2.5s1.091-2.5 2.436-2.5c1.346 0 2.436 1.119 2.436 2.5s-1.09 2.5-2.436 2.5zm1.461-8l4.436-8.106c.24-.492.875-.894 1.41-.894h12.667c.536 0 1.171.402 1.41.894l4.437 8.106h-24.36zm25.821 8c-1.345 0-2.436-1.119-2.436-2.5s1.091-2.5 2.436-2.5c1.346 0 2.437 1.119 2.437 2.5s-1.092 2.5-2.437 2.5z"/></svg>

<svg version="1.2" baseProfile="tiny" xmlns="http://www.w3.org/2000/svg" width="50" height="50" viewBox="0 0 50 50" overflow="inherit"><path d="M43 6V2H7v4H0v43h4V10h3v4h36v-4h3v39h4V6zm-.948 23l-6.525-11.125c-.259-.481-.91-.875-1.446-.875H15.918c-.536 0-1.187.394-1.445.875L7.949 29C6.877 29 6 29.9 6 31v10c0 1.1.877 2 1.949 2H10v3c0 1.65 1.213 3 2.82 3h.975C15.402 49 17 47.65 17 46v-3h16v3c0 1.65 1.597 3 3.205 3h.975c1.607 0 2.82-1.35 2.82-3v-3h2.052C43.123 43 44 42.1 44 41V31c0-1.1-.877-2-1.948-2zm-30.693 8c-1.345 0-2.436-1.119-2.436-2.5s1.091-2.5 2.436-2.5c1.346 0 2.436 1.119 2.436 2.5s-1.09 2.5-2.436 2.5zm1.461-8l4.436-8.106c.24-.492.875-.894 1.41-.894h12.667c.536 0 1.171.402 1.41.894L37.18 29H12.82zm25.821 8c-1.345 0-2.436-1.119-2.436-2.5s1.091-2.5 2.436-2.5c1.346 0 2.437 1.119 2.437 2.5S39.986 37 38.641 37z"/></svg>
